X: 537
T: Little Burnt Potato
B: NEFR #24
R: jig
Z: 2012 John Chambers <jc:trillian.mit.edu>
F: http://www.ibiblio.org/fiddlers/LITT_LL.htm
M: 6/8
L: 1/8
K: D
a|: "D"a^ga bag | afd Ade | f2f fgf | "G"e2B Bcd | "A"efe dcB | Ace a2a |
[1 "A7"a^ga ba=g | "D"f3 f2g :|[2 "A7"aba gfe | "D"d3 d2e |: "D"f2A f2A | "(Bm)"f3- f2e | def agf |
| "G"g3- gef | "Em"gba gfe | "A"dcB A2a |1"A7" a^ga ba=g | "D"f3- f2e :|2 "A7"a^ga b2c | "D"d3- d3 |]

%%newpage

